X: 3197
T: CATHKIN BRAES
Q: "Highland Schottische."
R: Schottische.
%R: shottish
B: James Kerr "Merry Melodies" v.3 p.23 #197
Z: 2016 John Chambers <jc:trillian.mit.edu>
M: C
L: 1/16
K: A
|:\
(vEA3) A4 (cA3) A4 | E3FE3D (CA,3) A,4 |\
(FB3) B4 (dB3) B4 | F3GF3E (DB,3) B,4 |\
(EA3) A4 (cA3) A4 | E3FE3D (CA,3) A,3C |\
D3EF3G A3Bc3d | e3fe3d (cA3) A4 :|
|:\
(ce3) e4 (ae3) e4 | c3de3d (cA3) A4 |\
(df3) f4 (bf3) f4 | d3ef3e (dB3) B4 |\
(ce3) e4 (ae3) e4 | c3de3d (cA3) A3c |\
d3ef3g a3ec3d | e3fe3d (cA3) A4 :|[K:=f][K:D]
|:\
F4 E3D F4 E3D | (FA3) A3B A3Bd3e |\
f4 e3d f4 e3d | (Bd3) A3F E4 A3G |\
F4 E3D F4 E3D | (FA3) A3B A3Bd3e |\
f3ed3A Bd3 Ad3 |[1 F4 (E3D) D4 A3G :|\
[2 F4 (E3D) D4-"_D.C."D2z2 |]

%%sep 1 1 500
%%sep 1 1 500

